!! 00000] TT[00
!! NN
!!!OTL: Banbian hanrui banbian kai
!!!ARE: Asia, China,ÿJiangsu, Wuxi, Sued)
!! Ethnic Group: Han
!! III, 504
!!!SCT: C0333
!!!YEM: Copyright 1995, estate of Helmut Schaffrath.
**kern
*ICvox
*Ivox
*M2/4
*k[f#]
*G:
{8ee
8ff#
8ff#
16ee
16dd
=1
8ee
8ff#
4ee
=2
4.dd
24gg
24ee
24dd
=3
2b}
=4
{8a
16b
16dd
8b
16a
16g
=5
2a
=6
8.a
16dd
16b
16dd
16b
16a
=7
4a
8r}
{8a
=8
12e
12g
12g
8a
16b
16dd
=9
8b
16a
16g
4a}
=10
{8dd
16ee
16dd
16dd
16b
16a
16g
=11
2a
=12
8.a
16dd
16b
16dd
16b
16a
=13
2a}
==
!!!AGN: Shange. Saige
!! Charakteristisch ist die Triole.
!!!ONB: ESAC (Essen Associative Code) Database: CHINA
!!!AMT: simple duple
!!!AIN: vox
!!!EED: Helmut Schaffrath
!!!EEV: 1.0
*-
